dist/svgs/devui-icons/op/connection-relate.svg

<?xml version="1.0" encoding="UTF-8"?>
<svg width="16px" height="16px" viewBox="0 0 16 16" version="1.1" xmlns="http://www.w3.org/2000/svg" xmlns:xlink="http://www.w3.org/1999/xlink">
    <title>操作/关联关系</title>
    <desc>Created with Sketch.</desc>
    <g id="操作/关联关系" stroke="none" stroke-width="1" fill="none" fill-rule="evenodd">
        <g id="关联关系" fill="#293040" fill-rule="nonzero">
            <path d="M2,11.8739825 C2.31961992,11.956247 2.65470043,12 3,12 C3.34529957,12 3.68038008,11.956247 4,11.8739825 L4,12 C4,12.5522847 4.44771525,13 5,13 L8,13 L8,12 L9.5,13 L10,13 L10,13.3333333 L11,14 L10,14.6666667 L10,15 L9.5,15 L8,16 L8,15 L5,15 C3.34314575,15 2,13.6568542 2,12 L2,11.8739825 Z M6.87398251,9 C6.956247,8.68038008 7,8.34529957 7,8 C7,7.65470043 6.956247,7.31961992 6.87398251,7 L8,7 L8,6 L9.5,7 L10,7 L10,7.33333333 L11,8 L10,8.66666667 L10,9 L9.5,9 L8,10 L8,9 L6.87398251,9 L6.87398251,9 Z M4,4.12601749 C3.68038008,4.043753 3.34529957,4 3,4 C2.65470043,4 2.31961992,4.043753 2,4.12601749 L2,4 C2,2.34314575 3.34314575,1 5,1 L8,1 L8,0 L9.5,1 L10,1 L10,1.33333333 L11,2 L10,2.66666667 L10,3 L9.5,3 L8,4 L8,3 L5,3 C4.44771525,3 4,3.44771525 4,4 L4,4.12601749 L4,4.12601749 Z M14,4 C12.8954305,4 12,3.1045695 12,2 C12,0.8954305 12.8954305,0 14,0 C15.1045695,0 16,0.8954305 16,2 C16,3.1045695 15.1045695,4 14,4 Z M14,10 C12.8954305,10 12,9.1045695 12,8 C12,6.8954305 12.8954305,6 14,6 C15.1045695,6 16,6.8954305 16,8 C16,9.1045695 15.1045695,10 14,10 Z M14,16 C12.8954305,16 12,15.1045695 12,14 C12,12.8954305 12.8954305,12 14,12 C15.1045695,12 16,12.8954305 16,14 C16,15.1045695 15.1045695,16 14,16 Z M3,11 C1.34314575,11 0,9.65685425 0,8 C0,6.34314575 1.34314575,5 3,5 C4.65685425,5 6,6.34314575 6,8 C6,9.65685425 4.65685425,11 3,11 Z M3,9 C3.55228475,9 4,8.55228475 4,8 C4,7.44771525 3.55228475,7 3,7 C2.44771525,7 2,7.44771525 2,8 C2,8.55228475 2.44771525,9 3,9 Z" id="形状"></path>
        </g>
    </g>
</svg>

<svg xmlns="http://www.w3.org/2000/svg" viewBox="0 0 16 16"><path d="M2 11.874a4.007 4.007 0 002 0V12a1 1 0 001 1h3v-1l1.5 1h.5v.333L11 14l-1 .667V15h-.5L8 16v-1H5a3 3 0 01-3-3v-.126zM6.874 9a4.007 4.007 0 000-2H8V6l1.5 1h.5v.333L11 8l-1 .667V9h-.5L8 10V9H6.874zM4 4.126a4.007 4.007 0 00-2 0V4a3 3 0 013-3h3V0l1.5 1h.5v.333L11 2l-1 .667V3h-.5L8 4V3H5a1 1 0 00-1 1v.126zM14 4a2 2 0 110-4 2 2 0 010 4zm0 6a2 2 0 110-4 2 2 0 010 4zm0 6a2 2 0 110-4 2 2 0 010 4zM3 11a3 3 0 110-6 3 3 0 010 6zm0-2a1 1 0 100-2 1 1 0 000 2z"/></svg>
